dist/svgs/unicons/line/exposure-increase.svg

<svg xmlns="http://www.w3.org/2000/svg" viewBox="0 0 24 24"><path d="M11 7h-1V6a1 1 0 00-2 0v1H7a1 1 0 000 2h1v1a1 1 0 002 0V9h1a1 1 0 000-2zm2 11h4a1 1 0 000-2h-4a1 1 0 000 2zm6-16H5a3 3 0 00-3 3v14a3 3 0 003 3h14a3 3 0 003-3V5a3 3 0 00-3-3zM4 18.59V5a1 1 0 011-1h13.59zM20 19a1 1 0 01-1 1H5.41L20 5.41z"/></svg>

<svg xmlns="http://www.w3.org/2000/svg" viewBox="0 0 24 24"><path d="M11,7H10V6A1,1,0,0,0,8,6V7H7A1,1,0,0,0,7,9H8v1a1,1,0,0,0,2,0V9h1a1,1,0,0,0,0-2Zm2,11h4a1,1,0,0,0,0-2H13a1,1,0,0,0,0,2ZM19,2H5A3,3,0,0,0,2,5V19a3,3,0,0,0,3,3H19a3,3,0,0,0,3-3V5A3,3,0,0,0,19,2ZM4,18.59V5A1,1,0,0,1,5,4H18.59ZM20,19a1,1,0,0,1-1,1H5.41L20,5.41Z"/></svg>
